packages/gestalt/src/icons/clock.svg

<svg width="24" height="24" xmlns="http://www.w3.org/2000/svg"><path fill="#B4B4B5" d="M17.83 17.83c-.37.36-.85.55-1.33.55-.48 0-.96-.19-1.33-.55l-5.04-5.05V6c0-1.04.83-1.87 1.87-1.87s1.88.83 1.88 1.87v5.22l3.95 3.95c.73.74.73 1.92 0 2.66M12 0C5.37 0 0 5.37 0 12s5.37 12 12 12 12-5.37 12-12S18.63 0 12 0"/></svg>

<svg width="24" height="24" viewBox="0 0 24 24" xmlns="http://www.w3.org/2000/svg"><path fill="#B4B4B5" d="M17.83,17.83 C17.46,18.19 16.98,18.38 16.50,18.38 C16.02,18.38 15.54,18.19 15.17,17.83 L10.13,12.78 L10.13,6.00 C10.13,4.96 10.96,4.13 12.00,4.13 C13.04,4.13 13.88,4.96 13.88,6.00 L13.88,11.22 L17.83,15.17 C18.56,15.91 18.56,17.09 17.83,17.83 M12.00,0.00 C5.37,0.00 0.00,5.37 0.00,12.00 C0.00,18.63 5.37,24.00 12.00,24.00 C18.63,24.00 24.00,18.63 24.00,12.00 C24.00,5.37 18.63,0.00 12.00,0.00"/></svg>
